; generated by Slic3r 1.2.9 on 2015-11-28 at 00:56:41

; external perimeters extrusion width = 0.40mm
; perimeters extrusion width = 0.48mm
; infill extrusion width = 0.48mm
; solid infill extrusion width = 0.48mm
; top infill extrusion width = 0.48mm
; support material extrusion width = 0.40mm

M107
M104 S230 ; set temperature
G28 ; home all axes
G1 Z5 F5000 ; lift nozzle

M109 S230 ; wait for temperature to be reached
G21 ; set units to millimeters
G90 ; use absolute coordinates
M82 ; use absolute distances for extrusion
G92 E0
G1 Z0.350 F7800.000
G1 E-2.00000 F2400.00000
G92 E0
G1 X82.998 Y61.948 F7800.000
G1 E2.00000 F2400.00000
G1 X84.235 Y61.024 E2.04777 F1800.000
G1 X87.362 Y59.214 E2.15955
G1 X88.145 Y58.828 E2.18657
G1 X89.766 Y58.156 E2.24087
G1 X92.005 Y57.659 E2.31183
G1 X94.836 Y58.156 E2.40079
G1 X96.457 Y58.828 E2.45508 F1800.000
G1 X97.012 Y59.088 E2.47403
G1 X109.681 Y65.767 E2.91719
G1 X110.080 Y65.995 E2.93139
G1 X110.362 Y66.170 E2.94165
G1 X111.169 Y66.749 E2.97239
G1 X111.682 Y67.188 E2.99329
G1 X112.352 Y67.869 E3.02284
G1 X112.538 Y68.085 E3.03166
G1 X113.084 Y68.802 E3.05955
G1 X113.471 Y69.415 E3.08198
G1 X113.662 Y69.758 E3.09414
G1 X114.003 Y70.465 E3.11841
G1 X114.144 Y70.809 E3.12992
G1 X114.371 Y71.454 E3.15106
G1 X114.603 Y72.325 E3.17898
G1 X119.238 Y94.855 E3.89068
G1 X119.373 Y96.190 E3.93219
G1 X119.373 Y103.718 E4.16511
G1 X119.241 Y105.036 E4.20611
G1 X114.605 Y127.866 E4.92690
G1 X114.340 Y128.843 E4.95823
G1 X114.086 Y129.542 E4.98123
G1 X113.722 Y130.319 E5.00779
G1 X113.169 Y131.236 E5.04090
G1 X112.806 Y131.728 E5.05984
G1 X112.276 Y132.337 E5.08482
G1 X111.615 Y132.961 E5.11295
G1 X111.394 Y133.144 E5.12182
G1 X110.757 Y133.610 E5.14623
G1 X110.033 Y134.046 E5.17239
G1 X97.012 Y140.912 E5.62785
G1 X96.457 Y141.172 E5.64681
G1 X94.836 Y141.844 E5.70110
G1 X92.598 Y142.341 E5.77207
G1 X89.766 Y141.844 E5.86103
G1 X88.145 Y141.172 E5.91532
G1 X86.388 Y140.098 E5.97903
G1 X83.720 Y137.830 E6.08738
G1 X82.711 Y136.959 E6.12863
G1 X81.259 Y135.184 E6.19959
G1 X80.412 Y131.941 E6.30328
G1 X80.412 Y67.789 E8.28823
G1 X81.114 Y64.821 E8.38261
G1 X81.631 Y63.789 E8.41831
G1 X82.962 Y61.996 E8.48742
G1 E6.48742 F2400.00000
G92 E0
G1 X92.698 Y133.034 F7800.000
G1 E2.00000 F2400.00000
G1 X92.862 Y133.431 E2.01328 F1800.000
G1 X92.698 Y133.827 E2.02657
G1 X92.301 Y133.992 E2.03985
G1 X91.905 Y133.827 E2.05313
G1 X91.740 Y133.431 E2.06642
G1 X91.903 Y133.037 E2.07959
G1 X92.307 Y132.872 E2.09308
G1 X92.642 Y133.011 E2.10432
G1 X92.937 Y132.457 F7800.000
G1 X93.176 Y132.556 E2.11233 F1800.000
G1 X93.538 Y133.431 E2.14163 F1800.000
G1 X93.176 Y134.306 E2.17094
G1 X92.301 Y134.668 E2.20024
G1 X91.426 Y134.306 E2.22954
G1 X91.064 Y133.431 E2.25884
G1 X91.425 Y132.558 E2.28807
G1 X92.308 Y132.196 E2.31758
G1 X92.881 Y132.434 E2.33679
G1 X93.176 Y131.879 F7800.000
G1 X93.654 Y132.078 E2.35281 F1800.000
G1 X94.215 Y133.431 E2.39813 F1800.000
G1 X93.654 Y134.784 E2.44344
G1 X92.301 Y135.344 E2.48876
G1 X90.948 Y134.784 E2.53408
G1 X90.387 Y133.431 E2.57940
G1 X90.948 Y132.078 E2.62469
G1 X92.309 Y131.520 E2.67022
G1 X93.121 Y131.856 E2.69740
G1 X93.228 Y132.276 F7800.000
G1 E0.69740 F2400.00000
G92 E0
G1 X90.240 Y126.987 F7800.000
G1 E2.00000 F2400.00000
G1 X90.240 Y72.896 E3.67366 F1800.000
G1 X104.125 Y72.702 E4.10333
G1 X104.691 Y72.724 E4.12083
G1 X105.190 Y72.802 E4.13646
G1 X105.431 Y72.866 E4.14419
G1 X105.644 Y72.945 E4.15122
G1 X105.962 Y73.119 E4.16242
G1 X106.080 Y73.210 E4.16703
G1 X106.264 Y73.403 E4.17528
G1 X106.431 Y73.677 E4.18521
G1 X106.504 Y73.857 E4.19123
G1 X106.604 Y74.285 E4.20482
G1 X106.624 Y74.544 E4.21286
G1 X106.613 Y125.556 E5.79122
G1 X106.594 Y125.928 E5.80278
G1 X106.551 Y126.183 E5.81076
G1 X106.500 Y126.352 E5.81623
G1 X106.396 Y126.569 E5.82369
G1 X106.277 Y126.702 E5.82920
G1 X106.102 Y126.818 E5.83569
G1 X105.833 Y126.907 E5.84447
G1 X105.698 Y126.931 E5.84872
G1 X90.300 Y126.987 E6.32514
G1 X89.615 Y127.614 F7800.000
G1 X89.615 Y72.280 E8.03727 F1800.000
G1 X104.133 Y72.077 E8.48651
G1 X104.751 Y72.101 E8.50564
G1 X105.319 Y72.189 E8.52343
G1 X105.621 Y72.270 E8.53311
G1 X105.890 Y72.370 E8.54198
G1 X106.318 Y72.605 E8.55708
G1 X106.487 Y72.735 E8.56368
G1 X106.756 Y73.017 E8.57575
G1 X106.995 Y73.405 E8.58985
G1 X107.095 Y73.649 E8.59801
G1 X107.165 Y73.888 E8.60572
G1 X107.224 Y74.203 E8.61562
G1 X107.250 Y74.529 E8.62575
G1 X107.238 Y125.572 E10.20507
G1 X107.216 Y125.997 E10.21824
G1 X107.161 Y126.325 E10.22855
G1 X107.084 Y126.579 E10.23676
G1 X106.939 Y126.881 E10.24712
G1 X106.712 Y127.153 E10.25808
G1 X106.594 Y127.251 E10.26284
G1 X106.342 Y127.397 E10.27185
G1 X105.985 Y127.515 E10.28349
G1 X105.752 Y127.555 E10.29079
G1 X89.675 Y127.614 E10.78823
G1 X88.990 Y128.242 F7800.000
G1 X88.990 Y71.663 E12.53884 F1800.000
G1 X104.141 Y71.452 E13.00766
G1 X104.811 Y71.478 E13.02841
G1 X105.448 Y71.577 E13.04836
G1 X105.811 Y71.674 E13.05998
G1 X106.136 Y71.795 E13.07071
G1 X106.423 Y71.935 E13.08058
G1 X106.674 Y72.090 E13.08973
G1 X106.894 Y72.260 E13.09831
G1 X107.084 Y72.441 E13.10644
G1 X107.249 Y72.631 E13.11421
G1 X107.387 Y72.825 E13.12159
G1 X107.558 Y73.134 E13.13252
G1 X107.685 Y73.442 E13.14283
G1 X107.773 Y73.742 E13.15251
G1 X107.844 Y74.120 E13.16442
G1 X107.876 Y74.514 E13.17665
G1 X107.863 Y125.588 E14.75693
G1 X107.838 Y126.065 E14.77171
G1 X107.771 Y126.468 E14.78434
G1 X107.669 Y126.807 E14.79530
G1 X107.483 Y127.192 E14.80854
G1 X107.387 Y127.335 E14.81386
G1 X107.148 Y127.604 E14.82501
G1 X106.964 Y127.757 E14.83240
G1 X106.581 Y127.976 E14.84604
G1 X106.137 Y128.123 E14.86053
G1 X105.807 Y128.180 E14.87090
G1 X89.050 Y128.241 E15.38936
G1 X89.190 Y127.895 F7800.000
G1 X90.619 Y126.302 F7800.000
G1 X90.924 Y126.607 E15.40283 F1800.000
G1 X91.813 Y126.603 E15.43059
G1 X90.619 Y125.410 E15.48332
G1 X90.619 Y124.517 E15.51118
G1 X92.701 Y126.600 E15.60317
G1 X93.590 Y126.597 E15.63093
G1 X90.619 Y123.625 E15.76218
G1 X90.619 Y122.733 E15.79004
G1 X94.479 Y126.594 E15.96055
G1 X95.368 Y126.590 E15.98831
G1 X90.619 Y121.841 E16.19808
G1 X90.619 Y120.949 E16.22594
G1 X96.257 Y126.587 E16.47496
G1 X97.145 Y126.584 E16.50272
G1 X90.619 Y120.057 E16.79101
G1 X90.619 Y119.165 E16.81887
G1 X98.034 Y126.581 E17.14641
G1 X98.923 Y126.577 E17.17417
G1 X90.619 Y118.273 E17.54097
G1 X90.619 Y117.381 E17.56884
G1 X99.812 Y126.574 E17.97490
G1 X100.701 Y126.571 E18.00266
G1 X90.619 Y116.489 E18.44798
G1 X90.619 Y115.597 E18.47584
G1 X101.589 Y126.567 E18.96041
G1 X102.478 Y126.564 E18.98817
G1 X90.619 Y114.705 E19.51201
G1 X90.619 Y113.813 E19.53987
G1 X103.367 Y126.561 E20.10297
G1 X104.256 Y126.558 E20.13073
G1 X90.619 Y112.921 E20.73308
G1 X90.619 Y112.029 E20.76094
G1 X105.145 Y126.554 E21.40256
G1 X105.979 Y126.497 E21.42868
G1 X90.619 Y111.137 E22.10716
G1 X90.619 Y110.244 E22.13502
G1 X106.226 Y125.851 E22.82438
G1 X106.235 Y124.969 E22.85195
G1 X90.619 Y109.352 E23.54172
G1 X90.619 Y108.460 E23.56958
G1 X106.235 Y124.077 E24.25936
G1 X106.235 Y123.185 E24.28722
G1 X90.619 Y107.568 E24.97701
G1 X90.619 Y106.676 E25.00487
G1 X106.235 Y122.293 E25.69467
G1 X106.236 Y121.401 E25.72252
G1 X90.619 Y105.784 E26.41233
G1 X90.619 Y104.892 E26.44019
G1 X106.236 Y120.509 E27.13000
G1 X106.236 Y119.617 E27.15786
G1 X90.619 Y104.000 E27.84768
G1 X90.619 Y103.108 E27.87554
G1 X106.236 Y118.725 E28.56537
G1 X106.236 Y117.834 E28.59323
G1 X90.619 Y102.216 E29.28307
G1 X90.619 Y101.324 E29.31093
G1 X106.237 Y116.942 E30.00077
G1 X106.237 Y116.050 E30.02863
G1 X90.619 Y100.432 E30.71849
G1 X90.619 Y99.540 E30.74635
G1 X106.237 Y115.158 E31.43621
G1 X106.237 Y114.266 E31.46407
G1 X90.619 Y98.648 E32.15394
G1 X90.619 Y97.756 E32.18180
G1 X106.237 Y113.374 E32.87168
G1 X106.238 Y112.482 E32.89954
G1 X90.619 Y96.864 E33.58942
G1 X90.619 Y95.971 E33.61729
G1 X106.238 Y111.590 E34.30718
G1 X106.238 Y110.699 E34.33504
G1 X90.619 Y95.079 E35.02494
G1 X90.619 Y94.187 E35.05281
G1 X106.238 Y109.807 E35.74272
G1 X106.238 Y108.915 E35.77058
G1 X90.619 Y93.295 E36.46050
G1 X90.619 Y92.403 E36.48836
G1 X106.239 Y108.023 E37.17829
G1 X106.239 Y107.131 E37.20615
G1 X90.619 Y91.511 E37.89608
G1 X90.619 Y90.619 E37.92395
G1 X106.239 Y106.239 E38.61389
G1 X106.239 Y105.347 E38.64175
G1 X90.619 Y89.727 E39.33170
G1 X90.619 Y88.835 E39.35957
G1 X106.239 Y104.455 E40.04953
G1 X106.239 Y103.564 E40.07738
G1 X90.619 Y87.943 E40.76736
G1 X90.619 Y87.051 E40.79522
G1 X106.240 Y102.672 E41.48520
G1 X106.240 Y101.780 E41.51305
G1 X90.619 Y86.159 E42.20304
G1 X90.619 Y85.267 E42.23090
G1 X106.240 Y100.888 E42.92090
G1 X106.240 Y99.996 E42.94876
G1 X90.619 Y84.375 E43.63876
G1 X90.619 Y83.483 E43.66662
G1 X106.240 Y99.104 E44.35664
G1 X106.241 Y98.212 E44.38449
G1 X90.619 Y82.591 E45.07452
G1 X90.619 Y81.698 E45.10238
G1 X106.241 Y97.320 E45.79241
G1 X106.241 Y96.429 E45.82026
G1 X90.619 Y80.806 E46.51030
G1 X90.619 Y79.914 E46.53816
G1 X106.241 Y95.537 E47.22821
G1 X106.241 Y94.645 E47.25607
G1 X90.619 Y79.022 E47.94612
G1 X90.619 Y78.130 E47.97398
G1 X106.242 Y93.753 E48.66405
G1 X106.242 Y92.861 E48.69190
G1 X90.619 Y77.238 E49.38198
G1 X90.619 Y76.346 E49.40984
G1 X106.242 Y91.969 E50.09992
G1 X106.242 Y91.077 E50.12777
G1 X90.619 Y75.454 E50.81786
G1 X90.619 Y74.562 E50.84572
G1 X106.242 Y90.185 E51.53582
G1 X106.242 Y89.294 E51.56368
G1 X90.619 Y73.670 E52.25378
G1 X91.101 Y73.261 E52.27355
G1 X106.243 Y88.402 E52.94234
G1 X106.243 Y87.510 E52.97020
G1 X91.981 Y73.248 E53.60014
G1 X92.861 Y73.236 E53.62762
G1 X106.243 Y86.618 E54.21871
G1 X106.243 Y85.726 E54.24656
G1 X93.741 Y73.224 E54.79879
G1 X94.621 Y73.211 E54.82628
G1 X106.243 Y84.834 E55.33966
G1 X106.244 Y83.942 E55.36751
G1 X95.500 Y73.199 E55.84204
G1 X96.380 Y73.187 E55.86952
G1 X106.244 Y83.050 E56.30520
G1 X106.244 Y82.159 E56.33305
G1 X97.260 Y73.175 E56.72987
G1 X98.140 Y73.162 E56.75736
G1 X106.244 Y81.267 E57.11532
G1 X106.244 Y80.375 E57.14318
G1 X99.020 Y73.150 E57.46230
G1 X99.900 Y73.138 E57.48978
G1 X106.245 Y79.483 E57.77004
G1 X106.245 Y78.591 E57.79790
G1 X100.779 Y73.126 E58.03931
G1 X101.659 Y73.113 E58.06679
G1 X106.245 Y77.699 E58.26934
G1 X106.245 Y76.807 E58.29720
G1 X102.539 Y73.101 E58.46090
G1 X103.419 Y73.089 E58.48839
G1 X106.245 Y75.915 E58.61324
G1 X106.245 Y75.024 E58.64109
G1 X104.316 Y73.094 E58.72634
G1 X105.514 Y73.400 E58.76496
G1 X106.037 Y73.923 E58.78805
G1 E56.78805 F2400.00000
G92 E0
G1 X91.905 Y66.966 F7800.000
G1 E2.00000 F2400.00000
G1 X91.740 Y66.569 E2.01328 F1800.000
G1 X91.903 Y66.176 E2.02646
G1 X92.307 Y66.011 E2.03995
G1 X92.698 Y66.173 E2.05305
G1 X92.862 Y66.569 E2.06633
G1 X92.698 Y66.966 E2.07962
G1 X92.301 Y67.130 E2.09290
G1 X91.960 Y66.989 E2.10433
G1 X91.327 Y67.205 F7800.000
G1 X91.064 Y66.569 E2.12562 F1800.000
G1 X91.425 Y65.696 E2.15485
G1 X92.308 Y65.335 E2.18436
G1 X93.176 Y65.694 E2.21344
G1 X93.538 Y66.569 E2.24274 F1800.000
G1 X93.176 Y67.444 E2.27204
G1 X92.301 Y67.807 E2.30134
G1 X91.426 Y67.444 E2.33064
G1 X91.350 Y67.260 E2.33679
G1 X90.750 Y67.444 F7800.000
G1 X90.387 Y66.569 E2.36609 F1800.000
G1 X90.948 Y65.217 E2.41139
G1 X92.309 Y64.659 E2.45691
G1 X93.654 Y65.216 E2.50196
G1 X94.215 Y66.569 E2.54728 F1800.000
G1 X93.654 Y67.922 E2.59260
G1 X92.301 Y68.483 E2.63792
G1 X90.948 Y67.922 E2.68324
G1 X90.773 Y67.500 E2.69740
G1 X90.993 Y67.127 F7800.000
G1 Z0.350 F7800.000
G1 E0.69740 F2400.00000
G92 E0
G1 X108.867 Y94.902 F7800.000
G1 E2.00000 F2400.00000
G1 X108.749 Y95.136 E2.00421 F1800.000
G1 X108.749 Y95.889 F7800.000
G1 X109.244 Y94.902 E2.02197 F1800.000
G1 X109.621 Y94.902 E2.02804
G1 X108.749 Y96.642 E2.05935
G1 X108.749 Y97.394 F7800.000
G1 X109.999 Y94.902 E2.10420 F1800.000
G1 X110.376 Y94.902 E2.11027
G1 X108.749 Y98.147 E2.16866
G1 X108.749 Y98.900 F7800.000
G1 X109.700 Y97.002 E2.20281 F1800.000
G1 X109.876 Y97.405 F7800.000
G1 X108.749 Y99.653 E2.24325 F1800.000
G1 X108.749 Y100.405 F7800.000
G1 X110.074 Y97.762 E2.29082 F1800.000
G1 X110.387 Y97.891 E2.29626
G1 X108.749 Y101.158 E2.35504
G1 X108.749 Y101.911 F7800.000
G1 X110.699 Y98.021 E2.42505 F1800.000
G1 X111.105 Y97.965 F7800.000
G1 X108.749 Y102.664 E2.50961 F1800.000
G1 X108.749 Y103.416 F7800.000
G1 X111.581 Y97.767 E2.61126 F1800.000
G1 X112.749 Y97.696 F7800.000
G1 X110.683 Y101.817 E2.68543 F1800.000
G1 X111.029 Y101.879 E2.69109
G1 X112.749 Y98.448 E2.75282
G1 X112.749 Y99.201 F7800.000
G1 X111.342 Y102.008 E2.80333 F1800.000
G1 X111.631 Y102.183 E2.80877
G1 X112.749 Y99.954 E2.84887
G1 X112.749 Y100.707 F7800.000
G1 X111.802 Y102.596 E2.88286 F1800.000
G1 X111.972 Y103.008 E2.89004
G1 X112.749 Y101.459 E2.91790
G1 X112.749 Y102.212 F7800.000
G1 X112.007 Y103.691 E2.94451 F1800.000
G1 X111.695 Y103.562 F7800.000
G1 X112.005 Y102.944 E2.95563 F1800.000
G1 X112.749 Y102.965 F7800.000
G1 X112.320 Y103.820 E2.97102 F1800.000
G1 X112.749 Y103.718 E2.97812
G1 X112.632 Y103.950 E2.98229
G1 X111.558 Y103.835 F7800.000
G1 X111.046 Y104.856 E3.00068 F1800.000
G1 X111.423 Y104.856 E3.00674
G1 X111.729 Y104.247 E3.01771
G1 X111.899 Y104.659 E3.02489
G1 X111.801 Y104.856 E3.02844
G1 X110.669 Y104.856 F7800.000
G1 X111.205 Y103.787 E3.04769 F1800.000
G1 X110.777 Y103.887 E3.05476
G1 X110.291 Y104.856 E3.07219
G1 X109.914 Y104.856 E3.07826
G1 X110.465 Y103.758 E3.09803
G1 X110.152 Y103.629 E3.10347
G1 X109.537 Y104.856 E3.12556
G1 X109.160 Y104.856 E3.13163
G1 X109.934 Y103.311 E3.15943
G1 X109.763 Y102.899 E3.16661
G1 X108.788 Y104.846 E3.20163
G1 X108.749 Y104.169 E3.21253
G1 X112.749 Y96.190 E3.35611
G1 X112.471 Y95.991 E3.36160
G1 X111.914 Y97.102 E3.38159
G1 X111.743 Y96.690 E3.38876
G1 X111.995 Y96.189 E3.39778
G1 X111.264 Y96.141 F7800.000
G1 X111.877 Y94.919 E3.41978 F1800.000
G1 X111.508 Y94.902 E3.42572
G1 X110.951 Y96.012 E3.44569
G1 X110.582 Y95.995 F7800.000
G1 X111.130 Y94.902 E3.46537 F1800.000
G1 X110.753 Y94.902 E3.47144
G1 X110.106 Y96.192 E3.49466
G1 E1.49466 F2400.00000
G92 E0
G1 X112.749 Y96.943 F7800.000
G1 E2.00000 F2400.00000
G1 X110.207 Y102.014 E2.09126 F1800.000
G1 E0.09126 F2400.00000
G92 E0
G1 X87.762 Y127.705 F7800.000
G1 E2.00000 F2400.00000
G1 X87.036 Y129.152 E2.05008 F1800.000
G1 X87.036 Y131.941 E2.13638
G1 X88.508 Y129.005 E2.23800
G1 X89.906 Y129.005 E2.28126
G1 X88.013 Y132.783 E2.41201
G1 X89.400 Y132.803 E2.45495
G1 X91.307 Y128.999 E2.58663
G1 X92.708 Y128.994 E2.62997
G1 X91.800 Y130.804 E2.69263
G1 E0.69263 F2400.00000
G92 E0
G1 X92.488 Y70.859 F7800.000
G1 E2.00000 F2400.00000
G1 X92.894 Y70.048 E2.02809 F1800.000
G1 X91.911 Y69.220 E2.06785
G1 X91.079 Y70.880 E2.12533
G1 X89.671 Y70.901 E2.16892
G1 X90.739 Y68.770 E2.24268
G1 X89.884 Y67.687 F7800.000
G1 X87.619 Y72.206 E2.39909 F1800.000
G1 X87.036 Y70.579 E2.45257
G1 X88.951 Y66.758 E2.58480
G1 X87.553 Y66.758 E2.62806
G1 X87.036 Y67.789 E2.66376
M104 S205 ; set temperature
G1 Z0.650 F7800.000
G1 E0.66376 F2400.00000
G92 E0
G1 X92.211 Y132.219 F7800.000
G1 E2.00000 F2400.00000
G1 X92.999 Y132.545 E2.01516 F900.000
G1 X93.325 Y133.333 E2.03031 F900.000
G1 X92.999 Y134.121 E2.04547
G1 X92.211 Y134.447 E2.06063
G1 X91.424 Y134.121 E2.07579
G1 X91.097 Y133.333 E2.09094
G1 X91.424 Y132.545 E2.10610
G1 X92.156 Y132.242 E2.12019
G1 X92.051 Y131.832 F7800.000
G1 X92.211 Y131.766 E2.12328 F900.000
G1 X93.319 Y132.225 E2.14460
G1 X93.779 Y133.333 E2.16593 F900.000
G1 X93.319 Y134.441 E2.18725
G1 X92.211 Y134.901 E2.20858
G1 X91.103 Y134.441 E2.22991
G1 X90.644 Y133.333 E2.25123
G1 X91.103 Y132.225 E2.27256
G1 X91.995 Y131.855 E2.28974
G1 X91.907 Y131.484 F7800.000
G1 X92.211 Y131.357 E2.29443 F900.000
G1 X93.608 Y131.936 E2.31597
G1 X94.187 Y133.333 E2.33751 F900.000
G1 X93.608 Y134.730 E2.35905
G1 X92.211 Y135.309 E2.38059
G1 X90.814 Y134.730 E2.40213
G1 X90.236 Y133.333 E2.42367
G1 X90.814 Y131.936 E2.44521
G1 X91.851 Y131.507 E2.46119
G1 X92.168 Y131.684 F7800.000
G1 X91.570 Y132.944 F7800.000
G1 X91.822 Y132.692 E2.46853 F1200.000
G1 X92.588 Y132.613 E2.48440
G1 X91.491 Y133.710 E2.51637
G1 X91.835 Y134.053 E2.52638
G1 X92.931 Y132.957 E2.55835
G1 X92.852 Y133.723 E2.57422
G1 X92.601 Y133.974 E2.58156
G1 E0.58156 F2400.00000
G92 E0
G1 X110.601 Y103.076 F7800.000
