; generated by Slic3r 1.2.9 on 2015-11-28 at 00:07:15

; external perimeters extrusion width = 0.40mm
; perimeters extrusion width = 0.48mm
; infill extrusion width = 0.48mm
; solid infill extrusion width = 0.48mm
; top infill extrusion width = 0.48mm

M107
M104 S235 ; set temperature
G28 ; home all axes
G1 Z5 F5000 ; lift nozzle

M109 S235 ; wait for temperature to be reached
G21 ; set units to millimeters
G90 ; use absolute coordinates
M82 ; use absolute distances for extrusion
G92 E0
G1 Z0.400 F7800.000
G1 E-2.00000 F2400.00000
G92 E0
G1 X64.710 Y85.551 F7800.000
G1 E2.00000 F2400.00000
G1 X67.223 Y83.826 E2.12322 F1800.000
G1 X69.323 Y82.865 E2.21653
G1 X71.024 Y82.647 E2.28581
G1 X128.842 Y82.647 E4.62242
G1 X131.116 Y83.044 E4.71574
G1 X132.500 Y83.731 E4.77816 F1800.000
G1 X135.156 Y85.456 E4.90617
G1 X136.847 Y87.028 E4.99948
G1 X137.720 Y88.563 E5.07082
G1 X137.901 Y89.011 E5.09037
G1 X138.389 Y91.268 E5.18368
G1 X138.279 Y92.770 E5.24455
G1 X135.526 Y107.476 E5.84919
G1 X135.407 Y107.996 E5.87072
G1 X135.107 Y108.992 E5.91276
G1 X134.711 Y109.956 E5.95487
G1 X134.223 Y110.871 E5.99682
G1 X134.046 Y111.153 E6.01026
G1 X133.457 Y111.968 E6.05091
G1 X133.008 Y112.487 E6.07862
G1 X132.317 Y113.160 E6.11761
G1 X131.599 Y113.736 E6.15481
G1 X130.752 Y114.282 E6.19553
G1 X130.406 Y114.474 E6.21153
G1 X129.692 Y114.814 E6.24347
G1 X129.345 Y114.955 E6.25862
G1 X128.358 Y115.280 E6.30060
G1 X127.701 Y115.436 E6.32790
G1 X127.283 Y115.514 E6.34508
G1 X126.585 Y115.606 E6.37353
G1 X126.111 Y115.643 E6.39277
G1 X103.326 Y117.301 E7.31602
G1 X102.879 Y117.318 E7.33408
G1 X97.152 Y117.353 E7.56555
G1 X96.619 Y117.335 E7.58709
G1 X73.045 Y115.603 E8.54235
G1 X71.987 Y115.456 E8.58555
G1 X71.170 Y115.267 E8.61940
G1 X70.780 Y115.151 E8.63585
G1 X70.077 Y114.897 E8.66608
G1 X69.085 Y114.423 E8.71052
G1 X68.366 Y113.980 E8.74464
G1 X67.702 Y113.482 E8.77817
G1 X67.103 Y112.942 E8.81077
G1 X66.614 Y112.416 E8.83979
G1 X66.429 Y112.195 E8.85142
G1 X65.953 Y111.550 E8.88382
G1 X65.805 Y111.323 E8.89479
G1 X65.330 Y110.471 E8.93423
G1 X64.983 Y109.669 E8.96953
G1 X64.778 Y109.066 E8.99526
G1 X64.550 Y108.153 E9.03327
G1 X61.724 Y92.746 E9.66632
G1 X61.704 Y90.437 E9.75963
G1 X62.106 Y89.011 E9.81950
G1 X62.288 Y88.563 E9.83907
G1 X63.511 Y86.604 E9.93238
G1 X64.665 Y85.591 E9.99443
G1 E7.99443 F2400.00000
G92 E0
G1 X127.028 Y91.189 F7800.000
G1 E2.00000 F2400.00000
G1 X127.234 Y104.764 E2.54868 F1800.000
G1 X127.210 Y105.387 E2.57387
G1 X127.136 Y105.859 E2.59318
G1 X127.077 Y106.077 E2.60230
G1 X127.005 Y106.269 E2.61057
G1 X126.853 Y106.545 E2.62332
G1 X126.695 Y106.728 E2.63307
G1 X126.539 Y106.851 E2.64112
G1 X126.374 Y106.942 E2.64873
G1 X126.054 Y107.054 E2.66244
G1 X125.821 Y107.097 E2.67201
G1 X125.581 Y107.116 E2.68174
G1 X74.095 Y107.105 E4.76245
G1 X73.735 Y107.087 E4.77702
G1 X73.501 Y107.048 E4.78658
G1 X73.203 Y106.931 E4.79953
G1 X73.048 Y106.793 E4.80792
G1 X72.939 Y106.533 E4.81933
G1 X72.913 Y106.383 E4.82548
G1 X72.858 Y91.189 E5.43952
G1 X126.968 Y91.189 E7.62627
G1 X127.732 Y90.475 F7800.000
G1 X127.948 Y104.773 E8.20416 F1800.000
G1 X127.922 Y105.457 E8.23181
G1 X127.835 Y106.008 E8.25438
G1 X127.757 Y106.296 E8.26643
G1 X127.662 Y106.552 E8.27747
G1 X127.439 Y106.955 E8.29607
G1 X127.316 Y107.112 E8.30415
G1 X127.051 Y107.364 E8.31891
G1 X126.682 Y107.587 E8.33635
G1 X126.448 Y107.682 E8.34654
G1 X126.219 Y107.749 E8.35618
G1 X125.914 Y107.806 E8.36873
G1 X125.597 Y107.831 E8.38156
G1 X74.076 Y107.819 E10.46369
G1 X73.658 Y107.798 E10.48064
G1 X73.340 Y107.745 E10.49364
G1 X73.100 Y107.673 E10.50376
G1 X72.835 Y107.547 E10.51562
G1 X72.631 Y107.398 E10.52585
G1 X72.480 Y107.228 E10.53503
G1 X72.415 Y107.128 E10.53985
G1 X72.281 Y106.831 E10.55302
G1 X72.242 Y106.693 E10.55883
G1 X72.198 Y106.382 E10.57152
G1 X72.142 Y90.475 E11.21436
G1 X127.672 Y90.475 E13.45850
G1 X128.442 Y89.761 F7800.000
G1 X128.663 Y104.782 E14.06561 F1800.000
G1 X128.634 Y105.526 E14.09572
G1 X128.535 Y106.157 E14.12154
G1 X128.438 Y106.515 E14.13652
G1 X128.318 Y106.835 E14.15034
G1 X128.179 Y107.117 E14.16304
G1 X128.025 Y107.365 E14.17482
G1 X127.857 Y107.580 E14.18587
G1 X127.678 Y107.767 E14.19633
G1 X127.489 Y107.928 E14.20635
G1 X127.297 Y108.064 E14.21586
G1 X126.990 Y108.233 E14.23003
G1 X126.683 Y108.358 E14.24340
G1 X126.385 Y108.445 E14.25598
G1 X126.007 Y108.515 E14.27149
G1 X125.614 Y108.546 E14.28743
G1 X74.058 Y108.533 E16.37097
G1 X73.580 Y108.509 E16.39030
G1 X73.179 Y108.442 E16.40675
G1 X72.843 Y108.342 E16.42093
G1 X72.468 Y108.163 E16.43772
G1 X72.170 Y107.945 E16.45261
G1 X71.904 Y107.653 E16.46858
G1 X71.786 Y107.471 E16.47734
G1 X71.609 Y107.077 E16.49481
G1 X71.544 Y106.853 E16.50425
G1 X71.487 Y106.519 E16.51791
G1 X71.484 Y106.389 E16.52318
G1 X71.425 Y89.761 E17.19519
G1 X128.382 Y89.761 E19.49699
G1 X128.245 Y90.109 F7800.000
G1 X126.602 Y91.968 F7800.000
G1 X126.259 Y91.625 E19.51686 F1800.000
G1 X125.236 Y91.625 E19.55872
G1 X126.618 Y93.006 E19.63870
G1 X126.634 Y94.045 E19.68121
G1 X124.213 Y91.625 E19.82129
G1 X123.191 Y91.625 E19.86315
G1 X126.649 Y95.084 E20.06335
G1 X126.665 Y96.122 E20.10586
G1 X122.168 Y91.625 E20.36617
G1 X121.145 Y91.625 E20.40803
G1 X126.681 Y97.161 E20.72844
G1 X126.697 Y98.199 E20.77095
G1 X120.122 Y91.625 E21.15147
G1 X119.099 Y91.625 E21.19333
G1 X126.712 Y99.238 E21.63397
G1 X126.728 Y100.276 E21.67647
G1 X118.077 Y91.625 E22.17722
G1 X117.054 Y91.625 E22.21908
G1 X126.744 Y101.315 E22.77993
G1 X126.760 Y102.353 E22.82244
G1 X116.031 Y91.625 E23.44340
G1 X115.008 Y91.625 E23.48526
G1 X126.775 Y103.392 E24.16632
G1 X126.791 Y104.430 E24.20883
G1 X113.985 Y91.625 E24.95001
G1 X112.963 Y91.625 E24.99187
G1 X126.778 Y105.440 E25.79146
G1 X126.575 Y106.260 E25.82603
G1 X111.940 Y91.625 E26.67308
G1 X110.917 Y91.625 E26.71494
G1 X125.948 Y106.656 E27.58493
G1 X124.950 Y106.680 E27.62581
G1 X109.894 Y91.625 E28.49719
G1 X108.871 Y91.625 E28.53905
G1 X123.927 Y106.680 E29.41042
G1 X122.904 Y106.680 E29.45229
G1 X107.849 Y91.625 E30.32365
G1 X106.826 Y91.625 E30.36551
G1 X121.881 Y106.679 E31.23686
G1 X120.858 Y106.679 E31.27873
G1 X105.803 Y91.625 E32.15007
G1 X104.780 Y91.625 E32.19192
G1 X119.835 Y106.679 E33.06325
G1 X118.812 Y106.679 E33.10512
G1 X103.757 Y91.625 E33.97643
G1 X102.735 Y91.625 E34.01829
G1 X117.789 Y106.679 E34.88959
G1 X116.766 Y106.678 E34.93146
G1 X101.712 Y91.625 E35.80275
G1 X100.689 Y91.625 E35.84461
G1 X115.743 Y106.678 E36.71588
G1 X114.720 Y106.678 E36.75775
G1 X99.666 Y91.625 E37.62901
G1 X98.643 Y91.625 E37.67087
G1 X113.697 Y106.678 E38.54213
G1 X112.674 Y106.678 E38.58399
G1 X97.621 Y91.625 E39.45523
G1 X96.598 Y91.625 E39.49709
G1 X111.651 Y106.677 E40.36832
G1 X110.628 Y106.677 E40.41019
G1 X95.575 Y91.625 E41.28140
G1 X94.552 Y91.625 E41.32326
G1 X109.605 Y106.677 E42.19447
G1 X108.582 Y106.677 E42.23633
G1 X93.529 Y91.625 E43.10753
G1 X92.507 Y91.625 E43.14939
G1 X107.559 Y106.676 E44.02056
G1 X106.536 Y106.676 E44.06243
G1 X91.484 Y91.625 E44.93360
G1 X90.461 Y91.625 E44.97546
G1 X105.512 Y106.676 E45.84661
G1 X104.489 Y106.676 E45.88848
G1 X89.438 Y91.625 E46.75962
G1 X88.415 Y91.625 E46.80148
G1 X103.466 Y106.676 E47.67261
G1 X102.443 Y106.675 E47.71448
G1 X87.393 Y91.625 E48.58560
G1 X86.370 Y91.625 E48.62746
G1 X101.420 Y106.675 E49.49857
G1 X100.397 Y106.675 E49.54043
G1 X85.347 Y91.625 E50.41153
G1 X84.324 Y91.625 E50.45339
G1 X99.374 Y106.675 E51.32447
G1 X98.351 Y106.675 E51.36634
G1 X83.301 Y91.625 E52.23741
G1 X82.279 Y91.625 E52.27927
G1 X97.328 Y106.674 E53.15032
G1 X96.305 Y106.674 E53.19219
G1 X81.256 Y91.625 E54.06324
G1 X80.233 Y91.625 E54.10510
G1 X95.282 Y106.674 E54.97613
G1 X94.259 Y106.674 E55.01800
G1 X79.210 Y91.625 E55.88902
G1 X78.187 Y91.625 E55.93088
G1 X93.236 Y106.674 E56.80189
G1 X92.213 Y106.673 E56.84376
G1 X77.165 Y91.625 E57.71475
G1 X76.142 Y91.625 E57.75661
G1 X91.190 Y106.673 E58.62760
G1 X90.167 Y106.673 E58.66947
G1 X75.119 Y91.625 E59.54044
G1 X74.096 Y91.625 E59.58230
G1 X89.144 Y106.673 E60.45326
G1 X88.121 Y106.672 E60.49513
G1 X73.297 Y91.848 E61.35315
G1 X73.301 Y92.874 E61.39516
G1 X87.098 Y106.672 E62.19376
G1 X86.075 Y106.672 E62.23562
G1 X73.304 Y93.901 E62.97480
G1 X73.308 Y94.927 E63.01681
G1 X85.052 Y106.672 E63.69656
G1 X84.029 Y106.672 E63.73843
G1 X73.311 Y95.954 E64.35877
G1 X73.315 Y96.980 E64.40078
G1 X83.006 Y106.671 E64.96169
G1 X81.983 Y106.671 E65.00355
G1 X73.319 Y98.007 E65.50504
G1 X73.322 Y99.033 E65.54705
G1 X80.960 Y106.671 E65.98912
G1 X79.937 Y106.671 E66.03099
G1 X73.326 Y100.060 E66.41363
G1 X73.330 Y101.086 E66.45564
G1 X78.914 Y106.671 E66.77887
G1 X77.891 Y106.670 E66.82073
G1 X73.333 Y102.113 E67.08454
G1 X73.337 Y103.139 E67.12654
G1 X76.868 Y106.670 E67.33092
G1 X75.845 Y106.670 E67.37279
G1 X73.341 Y104.165 E67.51775
G1 X73.344 Y105.192 E67.55976
G1 X74.822 Y106.670 E67.64529
G1 X73.728 Y106.598 E67.69017
G1 X73.360 Y106.230 E67.71149
M104 S230 ; set temperature
G1 Z0.700 F7800.000
G1 E65.71149 F2400.00000
G92 E0
G1 X97.259 Y109.851 F7800.000
G1 E2.00000 F2400.00000
G1 X97.326 Y109.879 E2.00105 F900.000
G1 X97.418 Y110.105 E2.00452
G1 X97.326 Y110.331 E2.00799
G1 X97.111 Y110.422 E2.01132
G1 X96.895 Y110.331 E2.01466
G1 X96.804 Y110.105 E2.01813
G1 X96.895 Y109.879 E2.02160
G1 X97.111 Y109.788 E2.02493
G1 X97.204 Y109.827 E2.02637
G1 X97.268 Y109.924 F7800.000
G1 E0.02637 F2400.00000
G92 E0
G1 X97.634 Y110.105 F7800.000
G1 X99.357 Y110.786 F7800.000
G1 X100.628 Y110.755 F7800.000
G1 X102.315 Y110.070 F7800.000
G1 X102.623 Y109.844 F7800.000
G1 E2.00000 F2400.00000
G1 X102.838 Y109.753 E2.00334 F900.000
G1 X103.054 Y109.844 E2.00667
G1 X103.146 Y110.070 E2.01014
G1 X103.054 Y110.296 E2.01361
G1 X102.838 Y110.387 E2.01695
G1 X102.623 Y110.296 E2.02028
G1 X102.531 Y110.070 E2.02375
G1 X102.600 Y109.900 E2.02637
G1 X102.840 Y109.932 F7800.000
G1 E0.02637 F2400.00000
G92 E0
G1 X103.208 Y109.693 F7800.000
G1 X104.127 Y109.760 F7800.000
G1 X105.070 Y110.786 F7800.000
G1 X125.144 Y110.786 F7800.000
G1 X125.218 Y108.933 F7800.000
G1 X127.848 Y90.357 F7800.000
G1 E2.00000 F2400.00000
G1 X128.067 Y104.774 E2.25634 F3600.000
G1 X128.039 Y105.468 E2.26868
G1 X127.951 Y106.033 E2.27885
G1 X127.870 Y106.332 E2.28436
G1 X127.770 Y106.599 E2.28942
G1 X127.536 Y107.023 E2.29803
G1 X127.405 Y107.190 E2.30180
G1 X127.123 Y107.457 E2.30871
G1 X126.733 Y107.694 E2.31683
G1 X126.487 Y107.794 E2.32154
G1 X126.247 Y107.864 E2.32600
G1 X125.929 Y107.923 E2.33173
G1 X125.600 Y107.949 E2.33760
G1 X74.073 Y107.937 E3.25363
G1 X73.645 Y107.915 E3.26126
G1 X73.314 Y107.860 E3.26723
G1 X73.058 Y107.784 E3.27198
G1 X72.775 Y107.649 E3.27756
G1 X72.555 Y107.488 E3.28240
G1 X72.385 Y107.298 E3.28693
G1 X72.311 Y107.185 E3.28933
G1 X72.170 Y106.871 E3.29544
G1 X72.126 Y106.719 E3.29826
G1 X72.080 Y106.383 E3.30429
G1 X72.023 Y90.357 E3.58920
G1 X127.788 Y90.357 E4.58057
G1 X128.265 Y89.938 F7800.000
G1 X128.486 Y104.779 E4.84445 F3600.000
G1 X128.457 Y105.509 E4.85743
G1 X128.361 Y106.120 E4.86843
G1 X128.269 Y106.461 E4.87470
G1 X128.155 Y106.765 E4.88048
G1 X128.024 Y107.031 E4.88575
G1 X127.879 Y107.263 E4.89061
G1 X127.723 Y107.464 E4.89514
G1 X127.380 Y107.788 E4.90352
G1 X127.203 Y107.913 E4.90738
G1 X126.914 Y108.073 E4.91326
G1 X126.625 Y108.190 E4.91879
G1 X126.344 Y108.272 E4.92400
G1 X125.984 Y108.339 E4.93050
G1 X125.610 Y108.368 E4.93718
G1 X74.063 Y108.356 E5.85357
G1 X73.599 Y108.332 E5.86182
G1 X73.219 Y108.269 E5.86868
G1 X72.907 Y108.176 E5.87447
G1 X72.559 Y108.010 E5.88132
G1 X72.284 Y107.809 E5.88736
G1 X72.047 Y107.547 E5.89364
G1 X71.942 Y107.386 E5.89707
G1 X71.776 Y107.016 E5.90428
G1 X71.717 Y106.813 E5.90804
G1 X71.664 Y106.503 E5.91364
G1 X71.662 Y106.387 E5.91569
G1 X71.603 Y89.938 E6.20812
G1 X128.205 Y89.938 E7.21437
G1 X128.642 Y89.561 F7800.000
G1 X128.863 Y104.784 E7.43123 F1800.000
G1 X128.833 Y105.546 E7.44209
G1 X128.731 Y106.199 E7.45151
G1 X128.629 Y106.576 E7.45708
G1 X128.502 Y106.915 E7.46223
G1 X128.354 Y107.215 E7.46699
G1 X128.189 Y107.479 E7.47144
G1 X128.008 Y107.711 E7.47562
G1 X127.815 Y107.913 E7.47960
G1 X127.612 Y108.087 E7.48340
G1 X127.403 Y108.234 E7.48705
G1 X127.076 Y108.414 E7.49236
G1 X126.749 Y108.547 E7.49739
G1 X126.431 Y108.640 E7.50211
G1 X126.033 Y108.713 E7.50787
G1 X125.619 Y108.746 E7.51380
G1 X74.053 Y108.733 E8.24831
G1 X73.559 Y108.708 E8.25536
G1 X73.134 Y108.637 E8.26149
G1 X72.771 Y108.529 E8.26689
G1 X72.365 Y108.335 E8.27330
G1 X72.041 Y108.099 E8.27901
G1 X71.743 Y107.772 E8.28530
G1 X71.610 Y107.567 E8.28878
G1 X71.421 Y107.146 E8.29536
G1 X71.349 Y106.897 E8.29905
G1 X71.287 Y106.538 E8.30424
G1 X71.284 Y106.391 E8.30633
G1 X71.224 Y89.561 E8.54607
G1 X128.582 Y89.561 E9.36308
G1 X128.445 Y89.909 F7800.000
G1 X127.727 Y105.767 F7800.000
G1 X125.820 Y107.674 E9.41137 F1200.000
G1 X125.196 Y107.702 E9.42256
G1 X127.803 Y105.095 E9.48858
G1 X127.816 Y104.485 E9.49950
G1 X124.599 Y107.702 E9.58095
G1 X124.003 Y107.701 E9.59163
G1 X127.807 Y103.897 E9.68796
G1 X127.798 Y103.309 E9.69849
G1 X123.406 Y107.701 E9.80970
G1 X122.810 Y107.701 E9.82038
G1 X127.790 Y102.722 E9.94647
G1 X127.781 Y102.134 E9.95699
G1 X122.213 Y107.701 E10.09796
G1 X121.617 Y107.701 E10.10864
G1 X127.772 Y101.546 E10.26448
G1 X127.763 Y100.958 E10.27501
G1 X121.021 Y107.701 E10.44573
G1 X120.424 Y107.701 E10.45641
G1 X127.754 Y100.371 E10.64201
G1 X127.745 Y99.783 E10.65254
G1 X119.828 Y107.700 E10.85302
G1 X119.231 Y107.700 E10.86370
G1 X127.736 Y99.195 E11.07905
G1 X127.727 Y98.608 E11.08958
G1 X118.635 Y107.700 E11.31981
G1 X118.038 Y107.700 E11.33049
G1 X127.718 Y98.020 E11.57561
G1 X127.709 Y97.432 E11.58613
G1 X117.442 Y107.700 E11.84612
G1 X116.845 Y107.700 E11.85680
G1 X127.700 Y96.844 E12.13167
G1 X127.692 Y96.257 E12.14219
G1 X116.249 Y107.700 E12.43194
G1 X115.652 Y107.700 E12.44262
G1 X127.683 Y95.669 E12.74725
G1 X127.674 Y95.081 E12.75777
G1 X115.056 Y107.699 E13.07728
G1 X114.459 Y107.699 E13.08796
G1 X127.665 Y94.494 E13.42234
G1 X127.656 Y93.906 E13.43286
G1 X113.863 Y107.699 E13.78212
G1 X113.266 Y107.699 E13.79280
G1 X127.647 Y93.318 E14.15694
G1 X127.638 Y92.731 E14.16746
G1 X112.670 Y107.699 E14.54648
G1 X112.073 Y107.699 E14.55716
G1 X127.629 Y92.143 E14.95105
G1 X127.620 Y91.555 E14.96158
G1 X111.477 Y107.699 E15.37035
G1 X110.880 Y107.698 E15.38103
G1 X127.611 Y90.967 E15.80468
G1 X127.378 Y90.604 E15.81241
G1 X110.284 Y107.698 E16.24526
G1 X109.687 Y107.698 E16.25594
G1 X126.782 Y90.604 E16.68878
G1 X126.185 Y90.604 E16.69946
G1 X109.091 Y107.698 E17.13230
G1 X108.494 Y107.698 E17.14298
G1 X125.588 Y90.604 E17.57582
G1 X124.992 Y90.604 E17.58650
G1 X107.898 Y107.698 E18.01933
G1 X107.301 Y107.698 E18.03001
G1 X124.395 Y90.604 E18.46284
G1 X123.798 Y90.604 E18.47353
G1 X106.705 Y107.698 E18.90635
G1 X106.108 Y107.697 E18.91703
G1 X123.202 Y90.604 E19.34986
G1 X122.605 Y90.604 E19.36054
G1 X105.512 Y107.697 E19.79336
G1 X104.916 Y107.697 E19.80404
G1 X122.009 Y90.604 E20.23686
G1 X121.412 Y90.604 E20.24754
G1 X104.319 Y107.697 E20.68035
G1 X103.723 Y107.697 E20.69103
G1 X120.815 Y90.604 E21.12384
G1 X120.219 Y90.604 E21.13452
G1 X103.126 Y107.697 E21.56733
G1 X102.530 Y107.697 E21.57801
G1 X119.622 Y90.604 E22.01081
G1 X119.026 Y90.604 E22.02149
G1 X101.933 Y107.696 E22.45429
G1 X101.337 Y107.696 E22.46497
G1 X118.429 Y90.604 E22.89777
G1 X117.832 Y90.604 E22.90845
G1 X100.740 Y107.696 E23.34124
G1 X100.144 Y107.696 E23.35192
G1 X117.236 Y90.604 E23.78471
G1 X116.639 Y90.604 E23.79540
G1 X99.547 Y107.696 E24.22818
G1 X98.951 Y107.696 E24.23886
G1 X116.042 Y90.604 E24.67164
G1 X115.446 Y90.604 E24.68233
G1 X98.354 Y107.696 E25.11511
G1 X97.758 Y107.696 E25.12579
G1 X114.849 Y90.604 E25.55856
G1 X114.253 Y90.604 E25.56924
G1 X97.161 Y107.695 E26.00202
G1 X96.565 Y107.695 E26.01270
G1 X113.656 Y90.604 E26.44546
G1 X113.059 Y90.604 E26.45615
G1 X95.968 Y107.695 E26.88891
G1 X95.372 Y107.695 E26.89959
G1 X112.463 Y90.604 E27.33235
G1 X111.866 Y90.604 E27.34304
G1 X94.775 Y107.695 E27.77580
G1 X94.179 Y107.695 E27.78648
G1 X111.269 Y90.604 E28.21923
G1 X110.673 Y90.604 E28.22991
G1 X93.582 Y107.695 E28.66266
